svgs/light/backpack.svg

<svg xmlns="http://www.w3.org/2000/svg" viewBox="0 0 448 512"><!-- Font Awesome Pro 5.15.4 by @fontawesome - https://fontawesome.com License - https://fontawesome.com/license (Commercial License) --><path d="M320 64h-16V48c0-26.47-21.53-48-48-48h-64c-26.47 0-48 21.53-48 48v16h-16C57.31 64 0 121.31 0 192v256c0 35.35 28.65 64 64 64h320c35.35 0 64-28.65 64-64V192c0-70.69-57.31-128-128-128zM176 48c0-8.83 7.19-16 16-16h64c8.81 0 16 7.17 16 16v16h-96V48zm160 432H112v-96h224v96zm0-128H112v-32c0-17.67 14.33-32 32-32h160c17.67 0 32 14.33 32 32v32zm80 96c0 17.64-14.36 32-32 32h-16V320c0-35.29-28.71-64-64-64H144c-35.29 0-64 28.71-64 64v160H64c-17.64 0-32-14.36-32-32V192c0-52.94 43.06-96 96-96h192c52.94 0 96 43.06 96 96v256zM312 160H136c-4.42 0-8 3.58-8 8v16c0 4.42 3.58 8 8 8h176c4.42 0 8-3.58 8-8v-16c0-4.42-3.58-8-8-8z"/></svg>

<svg xmlns="http://www.w3.org/2000/svg" viewBox="0 0 448 512"><!--! Font Awesome Pro 6.5.0 by @fontawesome - https://fontawesome.com License - https://fontawesome.com/license (Commercial License) Copyright 2023 Fonticons, Inc. --><path d="M192 32h64c8.8 0 16 7.2 16 16V64H176V48c0-8.8 7.2-16 16-16zM144 48V64H128C57.3 64 0 121.3 0 192V448c0 35.3 28.7 64 64 64H384c35.3 0 64-28.7 64-64V192c0-70.7-57.3-128-128-128H304V48c0-26.5-21.5-48-48-48H192c-26.5 0-48 21.5-48 48zm16 48H288h32c53 0 96 43 96 96V448c0 17.7-14.3 32-32 32H368V368 320c0-35.3-28.7-64-64-64H144c-35.3 0-64 28.7-64 64v48V480H64c-17.7 0-32-14.3-32-32V192c0-53 43-96 96-96h32zM112 480V384H336v96H112zm32-320c-8.8 0-16 7.2-16 16s7.2 16 16 16H304c8.8 0 16-7.2 16-16s-7.2-16-16-16H144zM336 352H112V320c0-17.7 14.3-32 32-32H304c17.7 0 32 14.3 32 32v32z"/></svg>
